svgs/solid/crosshairs.svg

<svg xmlns="http://www.w3.org/2000/svg" viewBox="0 0 512 512"><!-- Font Awesome Pro 6.0.0-alpha2 by @fontawesome - https://fontawesome.com License - https://fontawesome.com/license (Commercial License) --><path d="M256 224C238.326 224 224 238.326 224 256C224 273.672 238.326 288 256 288S288 273.672 288 256C288 238.326 273.674 224 256 224ZM480 224H470.992C456.939 128.721 381.453 54.982 288 41.037V32C288 14.326 273.674 0 256 0S224 14.326 224 32V41.037C130.547 54.982 55.061 128.721 41.008 224H32C14.326 224 0 238.326 0 256C0 273.672 14.326 288 32 288H40.93C54.609 383.518 128.482 457.391 224 471.07V480C224 497.672 238.326 512 256 512S288 497.672 288 480V471.07C383.518 457.391 457.391 383.518 471.07 288H480C497.674 288 512 273.672 512 256C512 238.326 497.674 224 480 224ZM364.801 364.799C342.689 386.91 315.883 400.744 288 406.773V384C288 366.326 273.674 352 256 352S224 366.326 224 384V406.469C196.811 400.318 171.092 386.639 150.4 364.799C129.453 342.689 115.922 315.883 109.826 288H128C145.674 288 160 273.672 160 256C160 238.326 145.674 224 128 224H109.523C115.291 196.811 128.561 171.092 150.4 150.4C171.652 130.266 197.289 117.217 224 110.787V128C224 145.672 238.326 160 256 160S288 145.672 288 128V108.588C316.4 113.939 343.283 127.688 364.801 150.4C385.221 170.82 398.824 196.207 405.234 224H384C366.326 224 352 238.326 352 256C352 273.672 366.326 288 384 288H406.604C400.734 316.293 386.361 343.238 364.801 364.799Z"/></svg>

<svg xmlns="http://www.w3.org/2000/svg" viewBox="0 0 512 512"><!--! Font Awesome Pro 6.0.0-alpha3 by @fontawesome - https://fontawesome.com License - https://fontawesome.com/license (Commercial License) --><path d="M256 224C238.3 224 224 238.3 224 256c0 17.67 14.33 32 32 32s32-14.33 32-32C288 238.3 273.7 224 256 224zM480 224h-9.008C456.9 128.7 381.5 54.98 288 41.04V32c0-17.67-14.33-32-32-32S224 14.33 224 32v9.037C130.5 54.98 55.06 128.7 41.01 224H32C14.33 224 0 238.3 0 256c0 17.67 14.33 32 32 32h8.93C54.61 383.5 128.5 457.4 224 471.1V480c0 17.67 14.33 32 31.1 32S288 497.7 288 480v-8.93C383.5 457.4 457.4 383.5 471.1 288H480c17.67 0 32-14.33 32-32C512 238.3 497.7 224 480 224zM364.8 364.8c-22.11 22.11-48.92 35.95-76.8 41.97V384c0-17.67-14.33-32-32-32S224 366.3 224 384v22.47c-27.19-6.15-52.91-19.83-73.6-41.67C129.5 342.7 115.9 315.9 109.8 288H128c17.67 0 31.1-14.33 31.1-32c0-17.67-14.33-32-31.1-32H109.5c5.768-27.19 19.04-52.91 40.88-73.6C171.7 130.3 197.3 117.2 224 110.8V128c0 17.67 14.33 32 31.1 32S288 145.7 288 128V108.6c28.4 5.352 55.28 19.1 76.8 41.81C385.2 170.8 398.8 196.2 405.2 224H384c-17.67 0-32 14.33-32 32c0 17.67 14.33 32 32 32h22.6C400.7 316.3 386.4 343.2 364.8 364.8z"/></svg>
